X:1
T: Lord Rosslyn's Fancy
C:
R:Jig
Q:180
K:Bb
M:6/8
L:1/16
|:F2G2B2 d4B2|c4B2 d4B2|F2G2A2 B4g2|f2d2B2 c6|
F2G2B2 d4B2|c4B2 d4B2|F2G2A2 B4g2|f2d2B2 c4(3fga|
b4B2 a4B2|g4B2 f2d2B2|G4B2 F4g2|f2d2B2 c4(3fga|
b4B2 a4B2|g4B2 f2d2B2|B2A2G2 F2D2F2|GB3B2 B4z2:|
